src/assets/top/accessories/Round.svg

<svg width='280px' height='280px' viewBox='0 0 280 280' version='1.1' xmlns='http://www.w3.org/2000/svg'>
      <g
        id='Top/_Resources/Round'
        fill='none'
        transform='translate(62.000000, 85.000000)'>
        <defs>
          <path
            d='M80.4646192,16.3941179 C84.3801509,8.45869677 92.552602,3 102,3 C110.919691,3 118.702887,7.86591082 122.839921,15.0880638 C123.050197,15.0306504 123.271519,15 123.5,15 L131.5,15 C132.880712,15 134,16.1192881 134,17.5 C134,18.8807119 132.880712,20 131.5,20 L124.963126,20 C125.637355,22.2145921 126,24.5649459 126,27 C126,40.254834 115.254834,51 102,51 C88.745166,51 78,40.254834 78,27 C78,25.5781066 78.1236513,24.1850936 78.3607874,22.8311273 C78.2762458,18.4553035 74.9135957,15 70.8624171,15 C67.1256697,15 63.9747186,17.9397535 63.4417635,21.8300629 C63.8073299,23.4951922 64,25.2250958 64,27 C64,40.254834 53.254834,51 40,51 C26.745166,51 16,40.254834 16,27 C16,24.5649459 16.3626451,22.2145921 17.0368738,20 L10.5,20 C9.11928813,20 8,18.8807119 8,17.5 C8,16.1192881 9.11928813,15 10.5,15 L10.5,15 L18.5,15 C18.728481,15 18.9498033,15.0306504 19.1600793,15.0880638 C23.2971127,7.86591082 31.0803092,3 40,3 C49.3521568,3 57.4549431,8.34919095 61.415666,16.15488 C63.4929212,13.0392725 66.9494432,11 70.8624171,11 C74.8746823,11 78.4070368,13.1440781 80.4646192,16.3941179 Z M40,47 C51.045695,47 60,38.045695 60,27 C60,15.954305 51.045695,7 40,7 C28.954305,7 20,15.954305 20,27 C20,38.045695 28.954305,47 40,47 Z M102,47 C113.045695,47 122,38.045695 122,27 C122,15.954305 113.045695,7 102,7 C90.954305,7 82,15.954305 82,27 C82,38.045695 90.954305,47 102,47 Z'
            id='path1'
          />
          <filter
            x='-0.8%'
            y='-2.1%'
            width='101.6%'
            height='108.3%'
            filterUnits='objectBoundingBox'
            id='filter1'>
            <feOffset
              dx='0'
              dy='2'
              in='SourceAlpha'
              result='shadowOffsetOuter1'
            />
            <feColorMatrix
              values='0 0 0 0 0   0 0 0 0 0   0 0 0 0 0  0 0 0 0.1 0'
              type='matrix'
              in='shadowOffsetOuter1'
            />
          </filter>
        </defs>
        <g id='Lennon-Glasses'>
          <use
            fill='black'
            fillOpacity='1'
            filter='url("#filter1")'
            href='#path1'
          />
          <use fill='#252C2F' fillRule='evenodd' href='#path1' />
        </g>
      </g>
</svg>

<svg width="280" height="280" xmlns="http://www.w3.org/2000/svg"><g fill="none" transform="translate(62 85)"><defs><filter x="-.8%" y="-2.1%" width="101.6%" height="108.3%" filterUnits="objectBoundingBox" id="a"><feOffset dy="2" in="SourceAlpha" result="shadowOffsetOuter1"/><feColorMatrix values="0 0 0 0 0 0 0 0 0 0 0 0 0 0 0 0 0 0 0.1 0" in="shadowOffsetOuter1"/></filter><path d="M80.465 16.394C84.38 8.46 92.553 3 102 3c8.92 0 16.703 4.866 20.84 12.088.21-.057.432-.088.66-.088h8a2.5 2.5 0 110 5h-6.537A23.998 23.998 0 01126 27c0 13.255-10.745 24-24 24S78 40.255 78 27c0-1.422.124-2.815.36-4.169C78.277 18.455 74.915 15 70.863 15c-3.736 0-6.887 2.94-7.42 6.83.365 1.665.558 3.395.558 5.17 0 13.255-10.745 24-24 24S16 40.255 16 27c0-2.435.363-4.785 1.037-7H10.5a2.5 2.5 0 110-5h8c.228 0 .45.03.66.088C23.297 7.866 31.08 3 40 3c9.352 0 17.455 5.35 21.416 13.155C63.493 13.039 66.949 11 70.862 11c4.013 0 7.545 2.144 9.603 5.394zM40 47c11.046 0 20-8.954 20-20S51.046 7 40 7s-20 8.954-20 20 8.954 20 20 20zm62 0c11.046 0 20-8.954 20-20s-8.954-20-20-20-20 8.954-20 20 8.954 20 20 20z" id="b"/></defs><use fill="#000" filter="url(&quot;#a&quot;)" href="#b"/><use fill="#252C2F" href="#b"/></g></svg>
